assets/Pensive face/Flat/pensive_face_flat.svg

<svg width="32" height="32" viewBox="0 0 32 32" fill="none" xmlns="http://www.w3.org/2000/svg">
<path d="M15.9989 29.9978C25.3333 29.9978 29.9978 23.7303 29.9978 15.9989C29.9978 8.26751 25.3333 2 15.9989 2C6.66443 2 2 8.26751 2 15.9989C2 23.7303 6.66443 29.9978 15.9989 29.9978Z" fill="#FFB02E"/>
<path d="M10.9851 8.62126C11.052 8.35337 10.8892 8.0819 10.6213 8.01492C10.3534 7.94795 10.0819 8.11083 10.0149 8.37873C9.78985 9.27905 9.34982 9.92279 8.76841 10.3456C8.18326 10.7712 7.41733 11 6.5 11C6.22386 11 6 11.2239 6 11.5C6 11.7761 6.22386 12 6.5 12C7.58267 12 8.56674 11.7288 9.35659 11.1544C10.1502 10.5772 10.7102 9.72094 10.9851 8.62126Z" fill="#402A32"/>
<path d="M6.29289 16.2929C6.68342 15.9024 7.31658 15.9024 7.70711 16.2929C7.8491 16.4349 8.65979 17 10 17C11.3402 17 12.1509 16.4349 12.2929 16.2929C12.6834 15.9024 13.3166 15.9024 13.7071 16.2929C14.0976 16.6834 14.0976 17.3166 13.7071 17.7071C13.1824 18.2318 11.8598 19 10 19C8.14021 19 6.81756 18.2318 6.29289 17.7071C5.90237 17.3166 5.90237 16.6834 6.29289 16.2929Z" fill="#402A32"/>
<path d="M18.2929 16.2929C18.6834 15.9024 19.3166 15.9024 19.7071 16.2929C19.8491 16.4349 20.6598 17 22 17C23.3402 17 24.1509 16.4349 24.2929 16.2929C24.6834 15.9024 25.3166 15.9024 25.7071 16.2929C26.0976 16.6834 26.0976 17.3166 25.7071 17.7071C25.1824 18.2318 23.8598 19 22 19C20.1402 19 18.8176 18.2318 18.2929 17.7071C17.9024 17.3166 17.9024 16.6834 18.2929 16.2929Z" fill="#402A32"/>
<path d="M21.3789 8.01492C21.111 8.0819 20.9481 8.35337 21.015 8.62126C21.29 9.72094 21.8499 10.5772 22.6435 11.1544C23.4334 11.7288 24.4174 12 25.5001 12C25.7763 12 26.0001 11.7761 26.0001 11.5C26.0001 11.2239 25.7763 11 25.5001 11C24.5828 11 23.8169 10.7712 23.2317 10.3456C22.6503 9.92279 22.2103 9.27905 21.9852 8.37873C21.9182 8.11083 21.6467 7.94795 21.3789 8.01492Z" fill="#402A32"/>
<path d="M13 24C12.4477 24 12 24.4477 12 25C12 25.5523 12.4477 26 13 26H19C19.5523 26 20 25.5523 20 25C20 24.4477 19.5523 24 19 24H13Z" fill="#402A32"/>
</svg>

<svg xmlns="http://www.w3.org/2000/svg" width="32" height="32" fill="none"><path fill="#FFB02E" d="M15.999 29.998c9.334 0 13.999-6.268 13.999-14 0-7.73-4.665-13.998-14-13.998C6.665 2 2 8.268 2 15.999c0 7.731 4.664 13.999 13.999 13.999Z"/><path fill="#402A32" d="M10.985 8.621a.5.5 0 0 0-.97-.242c-.225.9-.665 1.544-1.247 1.967-.585.425-1.35.654-2.268.654a.5.5 0 0 0 0 1c1.083 0 2.067-.271 2.857-.846.793-.577 1.353-1.433 1.628-2.533ZM6.293 16.293a1 1 0 0 1 1.414 0C7.85 16.435 8.66 17 10 17c1.34 0 2.15-.565 2.293-.707a1 1 0 0 1 1.414 1.414C13.182 18.232 11.86 19 10 19c-1.86 0-3.182-.768-3.707-1.293a1 1 0 0 1 0-1.414ZM18.293 16.293a1 1 0 0 1 1.414 0c.142.142.953.707 2.293.707 1.34 0 2.15-.565 2.293-.707a1 1 0 0 1 1.414 1.414C25.182 18.232 23.86 19 22 19c-1.86 0-3.182-.768-3.707-1.293a1 1 0 0 1 0-1.414ZM21.379 8.015a.5.5 0 0 0-.364.606c.275 1.1.835 1.956 1.628 2.533.79.575 1.774.846 2.857.846a.5.5 0 1 0 0-1c-.917 0-1.683-.229-2.268-.654-.582-.423-1.022-1.067-1.247-1.967a.5.5 0 0 0-.606-.364ZM13 24a1 1 0 1 0 0 2h6a1 1 0 1 0 0-2h-6Z"/></svg>
